X:1
T: The Major
N:
C:
S:
A:
O:
R:
M:6/8
K:G
I:speed 150
%W: A1
% voice 1 (1 lines, 38 notes)
K:G
M:6/8
L:1/16
d2 B2 G2 g6 d2 B2 G2 G2 B2 d2 d2 B2 G2 g6 c2 A2 F2 A2 B2 c2 |d2 B2 G2 g6 d2 B2 G2 g6 d2 B2 G2 g6 c2 A2 F2 A2 B2 c2 |
%W: A2
% voice 1 (1 lines, 38 notes)
d2 B2 G2 g6 d2 B2 G2 G2 B2 d2 d2 B2 G2 g6 c2 A2 F2 A2 B2 c2 |d2 B2 G2 g6 d2 B2 G2 g6 d2 B2 G2 g6 c2 A2 F2 A2 B2 c2 |
%W: B1
% voice 1 (1 lines, 48 notes)
d2 B2 G2 d2 B2 G2 d2 B2 G2 A2 B2 c2 d2 B2 G2 d2 B2 G2 c2 A2 F2 A2 B2 c2 |d2 B2 G2 d2 B2 G2 d2 B2 G2 d2 B2 G2 e2 d2 c2 f2 e2 d2 c2 A2 F2 A2 B2 c2 |
%W: B2
% voice 1 (1 lines, 45 notes)
d2 B2 G2 d2 B2 G2 d2 B2 G2 A2 B2 c2 d2 B2 G2 d2 B2 G2 c2 A2 F2 A2 B2 c2 |d2 B2 G2 d2 B2 G2 e2 d2 c2 f2 e2 d2 c2 A2 F2 A2 B2 c2 B4 G2 G6 ||
